Papirus/64x64/apps/system-software-update.svg

<svg xmlns="http://www.w3.org/2000/svg" width="64" height="64" version="1">
 <path d="m 47.166679,17.987564 c -1.951804,-0.05598 -3.808695,0.843265 -4.977502,2.41048 l -5.998779,8.041458 c -1.923634,2.585875 -1.467793,6.23199 1.032993,8.262547 -1.991621,1.613866 -5.101622,2.075898 -7.242665,0.829581 l 1.681297,1.453724 c -2.84903,-3.587486 -7.983659,-3.718077 -11.054388,-1.710032 -1.535366,1.004022 -2.986486,2.636206 -3.477808,5.030312 -0.491321,2.394107 0.466927,5.180419 1.946869,6.820565 0.259854,0.288 0.546945,0.550099 0.857248,0.782623 2.321702,1.739701 4.91605,2.872791 7.581135,3.505679 3.845939,0.849897 7.804163,0.756749 11.565354,-0.163886 7.731446,-2.002537 13.194586,-8.113532 15.11411,-15.323769 4.309183,-0.882426 6.237292,-5.957042 3.604735,-9.487353 L 51.8005,20.398035 c -1.096383,-1.47011 -2.802959,-2.357857 -4.633821,-2.410471 z" style="opacity:0.2"/>
 <path style="fill:#ff9932" d="m 47.166679,16.987564 c -1.951804,-0.05598 -3.808695,0.843265 -4.977502,2.41048 l -5.998779,8.041458 c -1.923634,2.585875 -1.467793,6.23199 1.032993,8.262547 -1.991621,1.613866 -5.101622,2.075898 -7.242665,0.829581 l 1.681297,1.453724 c -2.84903,-3.587486 -7.983659,-3.718077 -11.054388,-1.710032 -1.535366,1.004022 -2.986486,2.636206 -3.477808,5.030312 -0.491321,2.394107 0.466927,5.180419 1.946869,6.820565 0.259854,0.288 0.546945,0.550099 0.857248,0.782623 2.321702,1.739701 4.91605,2.872791 7.581135,3.505679 3.845939,0.849897 7.804163,0.756749 11.565354,-0.163886 7.731446,-2.002537 13.194586,-8.113532 15.11411,-15.323769 4.309183,-0.882426 6.237292,-5.957042 3.604735,-9.487353 L 51.8005,19.398035 c -1.096383,-1.47011 -2.802959,-2.357857 -4.633821,-2.410471 z"/>
 <path style="opacity:0.1;fill:#ffffff" d="m 47.16761,16.988281 c -1.951804,-0.05598 -3.809709,0.842941 -4.978516,2.410157 l -5.998047,8.041015 c -0.90609,1.218027 -1.278878,2.671222 -1.164062,4.080078 0.09131,-1.080997 0.471485,-2.14907 1.164062,-3.080078 l 5.998047,-8.041015 c 1.168807,-1.567216 3.026712,-2.466137 4.978516,-2.410157 1.830862,0.05261 3.536429,0.940047 4.632812,2.410157 l 5.998047,8.041015 c 0.711093,0.953589 1.079431,2.020053 1.167969,3.085938 0.117457,-1.385872 -0.233401,-2.832665 -1.167969,-4.085938 l -5.998047,-8.041015 c -1.096383,-1.47011 -2.80195,-2.357543 -4.632812,-2.410157 z M 25.458626,34.978516 c -1.769303,-0.05057 -3.508119,0.418355 -4.851563,1.296875 -1.535366,1.004022 -2.985241,2.63519 -3.476563,5.029297 -0.12283,0.598526 -0.155195,1.222187 -0.111328,1.845703 0.01948,-0.285043 0.0545,-0.568775 0.111328,-0.845703 0.491322,-2.394107 1.941197,-4.025275 3.476563,-5.029297 2.653484,-1.735196 6.846146,-1.867866 9.775391,0.441406 2.115143,0.982798 4.968686,0.502209 6.841796,-1.015625 -0.221027,-0.179467 -0.420527,-0.375265 -0.609374,-0.578125 -1.847237,1.173046 -4.332368,1.476607 -6.232422,0.59375 -1.446185,-1.140101 -3.198518,-1.68897 -4.923828,-1.738281 z"/>
 <path d="m 46.9977,23.972628 -6.000005,8.027351 4.000003,0 c 0.0134,2.912602 -0.457562,5.814086 -2.476564,7.988288 -3.795003,4.381284 -10.510696,5.613997 -15.5547,2.683596 -1.675622,-2.105803 -5.393891,0.20368 -3.441409,2.363282 2.777202,2.076942 5.931105,2.930102 9.437507,2.937502 l 0.004,-0.004 c 1.557802,0.0156 3.101165,-0.202816 4.601566,-0.597656 6.993112,-1.801107 11.535623,-8.416607 11.429603,-15.371012 l 4.000003,0 z" style="opacity:0.1"/>
 <path style="fill:#3f3f3f" d="m 46.9977,22.972628 -6.000005,8.027351 4.000003,0 c 0.0134,2.912602 -0.457562,5.814086 -2.476564,7.988288 -3.795003,4.381284 -10.510696,5.613997 -15.5547,2.683596 -1.675622,-2.105803 -5.393891,0.20368 -3.441409,2.363282 2.777202,2.076942 5.931105,2.930102 9.437507,2.937502 l 0.004,-0.004 c 1.557802,0.0156 3.101165,-0.202816 4.601566,-0.597656 6.993112,-1.801107 11.535623,-8.416607 11.429603,-15.371012 l 4.000003,0 z"/>
 <path d="m 33.078111,10.000397 c -2.155969,-0.01964 -4.224133,0.286711 -6.160855,0.796319 -7.731454,2.002616 -13.19458,8.113531 -15.11411,15.323769 -4.3091843,0.882426 -6.2372931,5.957044 -3.6047349,9.487354 l 5.9987779,8.041457 c 2.399396,3.216939 7.21193,3.216939 9.611325,0 l 5.998779,-8.041457 c 1.90896,-2.563739 1.479835,-6.176321 -0.976365,-8.219503 1.878654,-1.255811 5.350276,-1.941236 7.186037,-0.872626 l -1.681298,-1.453724 c 2.850158,3.588904 7.989527,3.714281 11.058295,1.704164 1.534383,-1.00506 2.983187,-2.635407 3.473902,-5.028356 0.490715,-2.39295 -0.466324,-5.179749 -1.946869,-6.820565 -0.259854,-0.288001 -0.546945,-0.5501 -0.857248,-0.782624 -3.883926,-2.910309 -8.528409,-4.11924 -12.985636,-4.134208 z" style="opacity:0.2"/>
 <path style="fill:#ffdb56" d="m 33.078111,9.0003967 c -2.155969,-0.019639 -4.224133,0.286711 -6.160855,0.796319 -7.731454,2.0026163 -13.19458,8.1135313 -15.11411,15.3237693 -4.3091843,0.882426 -6.2372931,5.957044 -3.6047349,9.487354 l 5.9987779,8.041457 c 2.399396,3.216939 7.21193,3.216939 9.611325,0 l 5.998779,-8.041457 c 1.90896,-2.563739 1.479835,-6.176321 -0.976365,-8.219503 1.878654,-1.255811 5.350276,-1.941236 7.186037,-0.872626 l -1.681298,-1.453724 c 2.850158,3.588904 7.989527,3.714281 11.058295,1.704164 1.534383,-1.00506 2.983187,-2.635407 3.473902,-5.028356 0.490715,-2.39295 -0.466324,-5.179749 -1.946869,-6.820565 -0.259854,-0.288001 -0.546945,-0.5501 -0.857248,-0.782624 C 42.179821,10.224296 37.535338,9.0153647 33.078111,9.0003967 Z"/>
 <path d="m 33.035156,15.999472 c -1.557801,-0.0155 -3.10507,0.206723 -4.605471,0.601563 -6.993206,1.801201 -11.535723,8.4167 -11.429697,15.371106 l -4.000004,0 6.000005,8.02735 6.000005,-8.02735 -4.000003,0 c -0.0134,-2.912603 0.457562,-5.814087 2.476564,-7.988287 3.522803,-3.983603 10.510696,-5.613999 15.5547,-2.683596 1.675622,2.105802 5.393891,-0.207588 3.441409,-2.36719 -2.777202,-2.076942 -5.931105,-2.926196 -9.437508,-2.933596 z" style="opacity:0.1"/>
 <path style="fill:#3f3f3f" d="m 33.035156,14.999472 c -1.557801,-0.0155 -3.10507,0.206723 -4.605471,0.601563 -6.993206,1.801201 -11.535723,8.4167 -11.429697,15.371106 l -4.000004,0 6.000005,8.02735 6.000005,-8.02735 -4.000003,0 c -0.0134,-2.912603 0.457562,-5.814087 2.476564,-7.988287 3.522803,-3.983603 10.510696,-5.613999 15.5547,-2.683596 1.675622,2.105802 5.393891,-0.207588 3.441409,-2.36719 -2.777202,-2.076942 -5.931105,-2.926196 -9.437508,-2.933596 z"/>
 <path style="opacity:0.2;fill:#ffffff" d="M 33.078125,8.9995057 C 30.922156,8.9798667 28.854691,9.2867727 26.917969,9.7963807 19.186515,11.798997 13.722264,17.910362 11.802734,25.1206 8.6570427,25.764768 6.7913244,28.642342 7.03125,31.522944 7.2441405,29.004481 9.022841,26.689861 11.802734,26.1206 c 1.91953,-7.210238 7.383781,-13.321603 15.115235,-15.324219 1.936722,-0.509608 4.004187,-0.8165153 6.160156,-0.7968753 4.457227,0.014968 9.102402,1.2244573 12.986328,4.1347663 0.310303,0.232524 0.597568,0.495202 0.857422,0.783203 1.109647,1.229768 1.924246,3.103706 2.056641,4.972656 0.147418,-2.177455 -0.748102,-4.522466 -2.056641,-5.972656 C 46.662021,13.629474 46.374756,13.366796 46.064453,13.134272 42.180527,10.223963 37.535352,9.0144737 33.078125,8.9995057 Z M 29.474609,27.02099 c -0.226502,0.117054 -0.448923,0.236431 -0.644531,0.367188 1.290917,1.073845 2.016687,2.58182 2.142578,4.142578 0.137927,-1.613968 -0.379944,-3.253222 -1.498047,-4.509766 z"/>
</svg>

<svg xmlns="http://www.w3.org/2000/svg" width="64" height="64" version="1">
 <path d="m 47.166679,17.987564 c -1.951804,-0.05598 -3.808695,0.843265 -4.977502,2.41048 l -5.998779,8.041458 c -1.923634,2.585875 -1.467793,6.23199 1.032993,8.262547 -1.991621,1.613866 -5.101622,2.075898 -7.242665,0.829581 l 1.681297,1.453724 c -2.84903,-3.587486 -7.983659,-3.718077 -11.054388,-1.710032 -1.535366,1.004022 -2.986486,2.636206 -3.477808,5.030312 -0.491321,2.394107 0.466927,5.180419 1.946869,6.820565 0.259854,0.288 0.546945,0.550099 0.857248,0.782623 2.321702,1.739701 4.91605,2.872791 7.581135,3.505679 3.845939,0.849897 7.804163,0.756749 11.565354,-0.163886 7.731446,-2.002537 13.194586,-8.113532 15.11411,-15.323769 4.309183,-0.882426 6.237292,-5.957042 3.604735,-9.487353 L 51.8005,20.398035 c -1.096383,-1.47011 -2.802959,-2.357857 -4.633821,-2.410471 z" style="opacity:0.2"/>
 <path style="fill:#ff9932" d="m 47.166679,16.987564 c -1.951804,-0.05598 -3.808695,0.843265 -4.977502,2.41048 l -5.998779,8.041458 c -1.923634,2.585875 -1.467793,6.23199 1.032993,8.262547 -1.991621,1.613866 -5.101622,2.075898 -7.242665,0.829581 l 1.681297,1.453724 c -2.84903,-3.587486 -7.983659,-3.718077 -11.054388,-1.710032 -1.535366,1.004022 -2.986486,2.636206 -3.477808,5.030312 -0.491321,2.394107 0.466927,5.180419 1.946869,6.820565 0.259854,0.288 0.546945,0.550099 0.857248,0.782623 2.321702,1.739701 4.91605,2.872791 7.581135,3.505679 3.845939,0.849897 7.804163,0.756749 11.565354,-0.163886 7.731446,-2.002537 13.194586,-8.113532 15.11411,-15.323769 4.309183,-0.882426 6.237292,-5.957042 3.604735,-9.487353 L 51.8005,19.398035 c -1.096383,-1.47011 -2.802959,-2.357857 -4.633821,-2.410471 z"/>
 <path d="m 33.078111,10.000397 c -2.155969,-0.01964 -4.224133,0.286711 -6.160855,0.796319 -7.731454,2.002616 -13.19458,8.113531 -15.11411,15.323769 -4.3091843,0.882426 -6.2372931,5.957044 -3.6047349,9.487354 l 5.9987779,8.041457 c 2.399396,3.216939 7.21193,3.216939 9.611325,0 l 5.998779,-8.041457 c 1.90896,-2.563739 1.479835,-6.176321 -0.976365,-8.219503 1.878654,-1.255811 5.350276,-1.941236 7.186037,-0.872626 l -1.681298,-1.453724 c 2.850158,3.588904 7.989527,3.714281 11.058295,1.704164 1.534383,-1.00506 2.983187,-2.635407 3.473902,-5.028356 0.490715,-2.39295 -0.466324,-5.179749 -1.946869,-6.820565 -0.259854,-0.288001 -0.546945,-0.5501 -0.857248,-0.782624 -3.883926,-2.910309 -8.528409,-4.11924 -12.985636,-4.134208 z" style="opacity:0.2"/>
 <path d="m 46.9977,23.972628 -6.000005,8.027351 4.000003,0 c 0.0134,2.912602 -0.457562,5.814086 -2.476564,7.988288 -3.795003,4.381284 -10.510696,5.613997 -15.5547,2.683596 -1.675622,-2.105803 -5.393891,0.20368 -3.441409,2.363282 2.777202,2.076942 5.931105,2.930102 9.437507,2.937502 l 0.004,-0.004 c 1.557802,0.0156 3.101165,-0.202816 4.601566,-0.597656 6.993112,-1.801107 11.535623,-8.416607 11.429603,-15.371012 l 4.000003,0 z" style="opacity:0.1"/>
 <path style="fill:#ffda43" d="m 33.078111,9.0003967 c -2.155969,-0.019639 -4.224133,0.286711 -6.160855,0.796319 -7.731454,2.0026163 -13.19458,8.1135313 -15.11411,15.3237693 -4.3091843,0.882426 -6.2372931,5.957044 -3.6047349,9.487354 l 5.9987779,8.041457 c 2.399396,3.216939 7.21193,3.216939 9.611325,0 l 5.998779,-8.041457 c 1.90896,-2.563739 1.479835,-6.176321 -0.976365,-8.219503 1.878654,-1.255811 5.350276,-1.941236 7.186037,-0.872626 l -1.681298,-1.453724 c 2.850158,3.588904 7.989527,3.714281 11.058295,1.704164 1.534383,-1.00506 2.983187,-2.635407 3.473902,-5.028356 0.490715,-2.39295 -0.466324,-5.179749 -1.946869,-6.820565 -0.259854,-0.288001 -0.546945,-0.5501 -0.857248,-0.782624 C 42.179821,10.224296 37.535338,9.0153647 33.078111,9.0003967 Z"/>
 <path style="fill:#3f3f3f" d="M 46.998047 22.972656 L 40.998047 31 L 44.998047 31 C 45.011447 33.912602 44.540486 36.814079 42.521484 38.988281 C 38.726481 43.369565 32.010801 44.602276 26.966797 41.671875 C 26.47231 41.050439 25.800468 40.821289 25.148438 40.851562 L 23.808594 42.648438 C 23.59963 42.928601 23.367381 43.176839 23.125 43.408203 C 23.214726 43.615777 23.336524 43.826255 23.525391 44.035156 C 26.302593 46.112098 29.456489 46.965256 32.962891 46.972656 L 32.966797 46.96875 C 34.524599 46.98435 36.067958 46.765934 37.568359 46.371094 C 44.561471 44.569987 49.104067 37.954405 48.998047 31 L 52.998047 31 L 46.998047 22.972656 z"/>
 <path style="opacity:0.2;fill:#ffffff" d="M 33.078125,8.9995057 C 30.922156,8.9798667 28.854691,9.2867727 26.917969,9.7963807 19.186515,11.798997 13.722264,17.910362 11.802734,25.1206 8.6570427,25.764768 6.7913244,28.642342 7.03125,31.522944 7.2441405,29.004481 9.022841,26.689861 11.802734,26.1206 c 1.91953,-7.210238 7.383781,-13.321603 15.115235,-15.324219 1.936722,-0.509608 4.004187,-0.8165153 6.160156,-0.7968753 4.457227,0.014968 9.102402,1.2244573 12.986328,4.1347663 0.310303,0.232524 0.597568,0.495202 0.857422,0.783203 1.109647,1.229768 1.924246,3.103706 2.056641,4.972656 0.147418,-2.177455 -0.748102,-4.522466 -2.056641,-5.972656 C 46.662021,13.629474 46.374756,13.366796 46.064453,13.134272 42.180527,10.223963 37.535352,9.0144737 33.078125,8.9995057 Z M 29.474609,27.02099 c -0.226502,0.117054 -0.448923,0.236431 -0.644531,0.367188 1.290917,1.073845 2.016687,2.58182 2.142578,4.142578 0.137927,-1.613968 -0.379944,-3.253222 -1.498047,-4.509766 z"/>
 <path d="m 33.035156,15.999472 c -1.557801,-0.0155 -3.10507,0.206723 -4.605471,0.601563 -6.993206,1.801201 -11.535723,8.4167 -11.429697,15.371106 l -4.000004,0 6.000005,8.02735 6.000005,-8.02735 -4.000003,0 c -0.0134,-2.912603 0.457562,-5.814087 2.476564,-7.988287 3.522803,-3.983603 10.510696,-5.613999 15.5547,-2.683596 1.675622,2.105802 5.393891,-0.207588 3.441409,-2.36719 -2.777202,-2.076942 -5.931105,-2.926196 -9.437508,-2.933596 z" style="opacity:0.1"/>
 <path style="fill:#3f3f3f" d="m 33.035156,14.999472 c -1.557801,-0.0155 -3.10507,0.206723 -4.605471,0.601563 -6.993206,1.801201 -11.535723,8.4167 -11.429697,15.371106 l -4.000004,0 6.000005,8.02735 6.000005,-8.02735 -4.000003,0 c -0.0134,-2.912603 0.457562,-5.814087 2.476564,-7.988287 3.522803,-3.983603 10.510696,-5.613999 15.5547,-2.683596 1.675622,2.105802 5.393891,-0.207588 3.441409,-2.36719 -2.777202,-2.076942 -5.931105,-2.926196 -9.437508,-2.933596 z"/>
 <path style="fill:#ff9932" d="M 47.166016 16.988281 C 45.214212 16.932301 43.35826 17.831222 42.189453 19.398438 L 36.189453 27.439453 L 40.021484 28.623047 L 42.917969 28.429688 L 46.998047 22.972656 L 50.691406 27.912109 L 57.798828 27.439453 L 51.800781 19.398438 C 50.704398 17.928328 48.996878 17.040895 47.166016 16.988281 z"/>
</svg>
